X:1
T:Title
%%score { ( 1 4 ) | ( 2 3 ) }
L:1/8
M:2/4
K:Ab
V:1 treble nm="Grand Piano"
V:4 treble 
V:2 bass 
V:3 bass 
V:1
 z2 z z/[Q:1/4=100] C/ | F>F F>G | [FA]>G F>A | [=EG]>F E>G | F4 | [DB]>[DB] [DB]>[=Ec] | %6
 [Fd]>c B>f | [_GBe]>c d>B | [=Ec]3- [Ec]/c/ | d>d d>c | [DB]2 B>f | c>c c>B | [FA]4 | %13
 [B,FB]2 [A,FA]>[=EG] | [A,CA]2 [G,=EG]2 | [G,=EG]2 [F,DF]>[G,CE] | %16
[M:7/16] [CF]/-[CF]/-[CF]/-[CF]-<[CF] |] %17
V:2
 z4 | C>C [F,A,C]2 | [F,,F,]2 [F,A,]2 | [C,,C,]2 [C,B,C]2 | z2 F,2 | [B,,F,]2 [B,,F,]2 | %6
 .[F,B,]>=E D>[K:treble]B | [_G,B,]2 [F,B,F]2 | C,>G, B,2 | [B,DF]2 [B,DF]2 | [B,,D,]2 [F,B,D]2 | %11
 [A,CA]2 [F,F]->[F,B,F] | F,>C, z z/ A/ | z z/[K:treble] B/[K:bass] z z/ G,/ | F,2 z z/ F/ | %15
 z z/ G/ B,,>C, |[M:7/16] F,>C,F,,3/2 |] %17
V:3
 x4 | [F,A,]2 z2 | x4 | x4 | F,,>C, z z/ C/ | x4 | z2 [F,B,]2[K:treble] | x4 | x4 | x4 | x4 | %11
 z2 A,2 | z2 F,,2 | D,2[K:treble][K:bass] D,2 | z2 C,2 | C,2 z2 |[M:7/16] x7/2 |] %17
V:4
 x4 | x4 | x4 | x4 | C2 C>F | x4 | x4 | x4 | x4 | x4 | x4 | x4 | x4 | x4 | x4 | x4 | %16
[M:7/16] x7/2 |] %17

